X:1
T:Title
%%score { ( 1 2 5 ) | ( 3 4 ) }
L:1/8
M:4/4
K:E
V:1 treble nm="Grand Piano"
V:2 treble 
V:5 treble 
V:3 bass 
V:4 bass 
V:1
 z4 z2[Q:1/4=100] z z/ F/ | G2 G2 G3 F | E2 E2 E2 z z/ G/ | [GB]2 [GB]2 [GB]3 [EG] | %4
[M:3/4] [DF]2 [DF]2 [DF]2 |[M:1/4] z z/ F/ |[M:4/4] G2 G2 G3 F | E2 E2 E2 z z/ G/ | %8
 [EGB]2 [Ge]2 [Ge]3 [GB] |[M:7/8] [EG]2 [DF]2 E3 |[M:1/4] E>G |[M:4/4] [GB]2 [GB]2 [GB]3 G | %12
 E2 E2 E2 E>E | [B,DF]2 [B,DF]2 [DB]3 [DA] |[M:3/4] G2 c2 B2 |[M:1/4] E>G | %16
[M:4/4] [GB]2 [GB]2 [GB]3 [EG] | E2 E2 E2 B2 | e-[Ae] z F z2[K:bass] z F |[M:3/4] E6 |] %20
V:2
 z4 z2 E2 | x8 | z4 z2 E2 | x8 |[M:3/4] x6 |[M:1/4] E2 |[M:4/4] x8 | z4 z2 E2 | x8 |[M:7/8] x7 | %10
[M:1/4] x2 |[M:4/4] x8 | x8 | x8 |[M:3/4] x6 |[M:1/4] x2 |[M:4/4] x8 | x8 | .G2 B2 G4[K:bass] | %19
[M:3/4] x6 |] %20
V:3
 z4 z2 G,>A, | [E,B,E]2 [E,B,E]2 [E,B,E]3 [E,A,E] | [E,G,]2 [E,A,C]2 [E,G,B,]2 G,>A, | %3
 [E,E]2 [E,E]2 [E,E]3 [E,B,] |[M:3/4] [B,,B,]2 [B,,B,]2 [B,,B,]2 |[M:1/4] G,>A, | %6
[M:4/4] [E,B,E]2 [E,B,E]2 [E,B,E]3 [E,A,E] | [E,G,]2 [E,A,C]2 [E,G,B,]2 G,>B, | %8
 E,2 [E,B,]2 [E,B,]3 [E,B,] |[M:7/8] [B,,B,]2 [B,,A,]2 [E,G,]3 |[M:1/4] [E,G,B,]>[E,B,E] | %11
[M:4/4] [E,E]2 [E,E]2 [E,E]3 [E,B,E] | [E,G,]2 [E,A,C]2 [E,G,B,]2 [E,G,B,]>[E,G,B,] | %13
 B,,A,F,D, [B,,F,]3 [B,,B,] |[M:3/4] [E,B,E]2 [E,A,E]2 [E,G,E]2 |[M:1/4] [E,G,B,]>[E,B,E] | %16
[M:4/4] [E,E]2 [E,E]2 [E,E]3 [D,B,] | [E,G,]2 [E,A,C]2 [E,G,B,]2 [E,G,E]2 | %18
 [E,C][F,E][K:treble][G,EG][A,C][K:bass] [B,E]3 [A,D] |[M:3/4] [E,G,]6 |] %20
V:4
 z4 z2 E,2 | x8 | z4 z2 E,2 | x8 |[M:3/4] x6 |[M:1/4] E,2 |[M:4/4] x8 | z4 z2 E,2 | x8 | %9
[M:7/8] x7 |[M:1/4] x2 |[M:4/4] x8 | x8 | x8 |[M:3/4] x6 |[M:1/4] x2 |[M:4/4] x8 | x8 | %18
 x2[K:treble] x2[K:bass] x4 |[M:3/4] x6 |] %20
V:5
 x8 | x8 | x8 | x8 |[M:3/4] x6 |[M:1/4] x2 |[M:4/4] x8 | x8 | x8 |[M:7/8] x7 |[M:1/4] x2 | %11
[M:4/4] x8 | x8 | x8 |[M:3/4] x6 |[M:1/4] x2 |[M:4/4] x8 | x8 | z4 z2[K:bass] B,,2 |[M:3/4] x6 |] %20

